assets/symbols/mulberry/flag_argentina.svg

<svg height="850.394" viewBox="0 0 850.394 850.394" width="850.394" xmlns="http://www.w3.org/2000/svg"><path d="m746.81 389.51v130.63h-585.35v-130.63h4.79z" fill="#a8d7f4"/><path d="m474.23 332.76c-.03-2.59-.58-5.06-1.551-7.31-2.939-6.88-9.779-11.71-17.739-11.71a19.2 19.2 0 0 0 -7.41 1.47c-2.271.95-4.32 2.31-6.061 4.01a19.178 19.178 0 0 0 -4.34 6.37c-.97 2.3-1.5 4.82-1.5 7.46 0 2.37.43 4.63 1.21 6.73a19.232 19.232 0 0 0 10.891 11.17c2.18.89 4.56 1.38 7.06 1.4h.15c2.699 0 5.26-.55 7.6-1.55 2.43-1.05 4.61-2.58 6.41-4.48a19.16 19.16 0 0 0 4.21-6.91c.7-1.99 1.08-4.13 1.08-6.36 0-.1 0-.19-.01-.29zm272.58-56.46v113.21h-585.35v-113.21z" fill="#fff"/><path d="m746.81 140.44v135.86h-585.35v-135.86h2.46z" fill="#a8d7f4"/><path d="m472.68 325.45a18.964 18.964 0 0 1 1.551 7.31c.01.1.01.19.01.29 0 2.23-.38 4.37-1.08 6.36a19.16 19.16 0 0 1 -4.21 6.91c-1.8 1.9-3.98 3.43-6.41 4.48-2.34 1-4.9 1.55-7.6 1.55h-.15c-2.5-.02-4.88-.51-7.06-1.4a19.225 19.225 0 0 1 -10.891-11.17c-.78-2.1-1.21-4.36-1.21-6.73 0-2.64.53-5.16 1.5-7.46 1.01-2.41 2.49-4.58 4.34-6.37a19.34 19.34 0 0 1 6.061-4.01 19.2 19.2 0 0 1 7.41-1.47c7.959 0 14.799 4.83 17.739 11.71z" fill="#fbed24"/><path d="m161.46 114.54c-5.96 2.81-13.05 4.43-20.67 4.43-6.6 0-12.81-1.22-18.23-3.36-11.92-4.72-20.01-13.93-20.01-24.51 0-15.39 17.12-27.87 38.24-27.87s38.23 12.48 38.23 27.87c0 9.84-6.99 18.49-17.56 23.44z" fill="#c8c8c8"/><path d="m161.46 520.14v265.1h-39.48l-1.98-665.24 2.56-4.39c5.42 2.14 11.63 3.36 18.23 3.36 7.62 0 14.71-1.62 20.67-4.43z" fill="#c8c8c8"/><g fill="none"><g stroke="#231f20"><path d="m163.92 140.44h582.89v379.7h-579.4m-44.85-404.53c-11.92-4.72-20.01-13.93-20.01-24.51 0-15.39 17.12-27.87 38.24-27.87s38.23 12.48 38.23 27.87c0 9.84-6.99 18.49-17.56 23.44-5.96 2.81-13.05 4.43-20.67 4.43-6.6 0-12.81-1.22-18.23-3.36zm-2.56 4.39 1.98 665.24m39.48-672.52v672.52" stroke-width="21"/><path d="m163.35 276.3h583.46m-580.56 113.21h583.47" stroke-width="14"/><path d="m474.23 332.76c.01.1.01.19.01.29 0 2.23-.38 4.37-1.08 6.36a19.16 19.16 0 0 1 -4.21 6.91c-1.8 1.9-3.98 3.43-6.41 4.48-2.34 1-4.9 1.55-7.6 1.55h-.15c-2.5-.02-4.88-.51-7.06-1.4a19.225 19.225 0 0 1 -10.891-11.17c-.78-2.1-1.21-4.36-1.21-6.73 0-2.64.53-5.16 1.5-7.46 1.01-2.41 2.49-4.58 4.34-6.37a19.34 19.34 0 0 1 6.061-4.01 19.2 19.2 0 0 1 7.41-1.47c7.96 0 14.8 4.83 17.739 11.71a18.964 18.964 0 0 1 1.551 7.31z" stroke-width="13.934"/><path d="m454.64 289.8v23.8m-16.73-20.02 9.62 21.63.05.11m-23.85-12.03 17.74 15.93.25.22m-26.41-2.36 21.82 8.51.6.23m.9 45.57 9.1-20.44.58-1.3m-23.85 12.03 16.76-15.04 1.24-1.11m-26.41 2.36 20.79-8.11 1.62-.63m16.33 12.62v23.81m-18.15-42.53h-23.8m59.45-39.76-9.67 21.74m23.85-12.02-17.99 16.14m26.4-2.36-22.2 8.66-.21.08m-.9 45.58-9.03-20.31-.64-1.44m23.84 12.03-16.79-15.07-1.2-1.08m26.41 2.36-21-8.19-1.41-.55m1.81-6.1h23.8" stroke-linecap="round" stroke-linejoin="round" stroke-width="6.967"/></g><path d="m0 0h850.394v850.394h-850.394z"/></g></svg>

<svg xmlns="http://www.w3.org/2000/svg" width="850.394" height="850.394" viewBox="0 0 850.394 850.394" overflow="visible"><path fill="#a8d7f4" d="M746.81 389.51v130.63H161.46V389.51h4.79z"/><path d="M474.23 332.76c-.03-2.59-.58-5.06-1.551-7.31-2.939-6.88-9.779-11.71-17.739-11.71a19.2 19.2 0 0 0-7.41 1.47c-2.271.95-4.32 2.31-6.061 4.01a19.178 19.178 0 0 0-4.34 6.37c-.97 2.3-1.5 4.82-1.5 7.46 0 2.37.43 4.63 1.21 6.73a19.232 19.232 0 0 0 10.891 11.17c2.18.89 4.56 1.38 7.06 1.4h.15c2.699 0 5.26-.55 7.6-1.55 2.43-1.05 4.61-2.58 6.41-4.48a19.16 19.16 0 0 0 4.21-6.91c.7-1.99 1.08-4.13 1.08-6.36 0-.1 0-.19-.01-.29zm272.58-56.46v113.21H161.46V276.3h585.35z" fill="#fff"/><path fill="#a8d7f4" d="M746.81 140.44V276.3H161.46V140.44h2.46z"/><path d="M472.68 325.45a18.964 18.964 0 0 1 1.551 7.31c.01.1.01.19.01.29 0 2.23-.38 4.37-1.08 6.36a19.16 19.16 0 0 1-4.21 6.91c-1.8 1.9-3.98 3.43-6.41 4.48-2.34 1-4.9 1.55-7.6 1.55h-.15c-2.5-.02-4.88-.51-7.06-1.4a19.225 19.225 0 0 1-10.891-11.17c-.78-2.1-1.21-4.36-1.21-6.73 0-2.64.53-5.16 1.5-7.46 1.01-2.41 2.49-4.58 4.34-6.37a19.34 19.34 0 0 1 6.061-4.01 19.2 19.2 0 0 1 7.41-1.47c7.959 0 14.799 4.83 17.739 11.71z" fill="#fbed24"/><path d="M161.46 114.54c-5.96 2.81-13.05 4.43-20.67 4.43-6.6 0-12.81-1.22-18.23-3.36-11.92-4.72-20.01-13.93-20.01-24.51 0-15.39 17.12-27.87 38.24-27.87s38.23 12.48 38.23 27.87c0 9.84-6.99 18.49-17.56 23.44z" fill="#c8c8c8"/><path d="M161.46 520.14v265.1h-39.48L120 120l2.56-4.39c5.42 2.14 11.63 3.36 18.23 3.36 7.62 0 14.71-1.62 20.67-4.43v405.6z" fill="#c8c8c8"/><g fill="none" stroke="#231f20"><path stroke-width="21" d="M163.92 140.44h582.89v379.7h-579.4M122.56 115.61c-11.92-4.72-20.01-13.93-20.01-24.51 0-15.39 17.12-27.87 38.24-27.87s38.23 12.48 38.23 27.87c0 9.84-6.99 18.49-17.56 23.44-5.96 2.81-13.05 4.43-20.67 4.43-6.6 0-12.81-1.22-18.23-3.36zM120 120l1.98 665.24M161.46 112.72v672.52"/><path stroke-width="14" d="M163.35 276.3h583.46M166.25 389.51H749.72"/><path d="M474.23 332.76c.01.1.01.19.01.29 0 2.23-.38 4.37-1.08 6.36a19.16 19.16 0 0 1-4.21 6.91c-1.8 1.9-3.98 3.43-6.41 4.48-2.34 1-4.9 1.55-7.6 1.55h-.15c-2.5-.02-4.88-.51-7.06-1.4a19.225 19.225 0 0 1-10.891-11.17c-.78-2.1-1.21-4.36-1.21-6.73 0-2.64.53-5.16 1.5-7.46 1.01-2.41 2.49-4.58 4.34-6.37a19.34 19.34 0 0 1 6.061-4.01 19.2 19.2 0 0 1 7.41-1.47c7.96 0 14.8 4.83 17.739 11.71a18.964 18.964 0 0 1 1.551 7.31z" stroke-width="13.934"/><path stroke-width="6.967" stroke-linecap="round" stroke-linejoin="round" d="M454.64 289.8v23.8M437.91 293.58l9.62 21.63.05.11M423.73 303.29l17.74 15.93.25.22M415.31 317.08l21.82 8.51.6.23M438.63 371.39l9.1-20.44.58-1.3M424.46 361.68l16.76-15.04 1.24-1.11M416.05 347.89l20.79-8.11 1.62-.63M454.79 351.77v23.81M436.64 333.05h-23.8M472.29 293.29l-9.67 21.74M486.47 303.01l-17.99 16.14M494.88 316.79l-22.2 8.66-.21.08M471.57 371.11l-9.03-20.31-.64-1.44M485.74 361.39l-16.79-15.07-1.2-1.08M494.16 347.6l-21-8.19-1.41-.55M473.56 332.76h23.8"/></g><path fill="none" d="M0 0h850.394v850.394H0z"/></svg>
